X:413
T: MARIE SASS TRAURIG IM GARTEN
N: B0486
O: Europa, Mitteleuropa, Deutschland, Wetzlar, Schwalbach
R: Liebes - Lied, Leid, Klage
M: 6/8
L: 1/16
K: Bb
F2 | D3DD2G2G2G2 | F2F4z4
F2 | D3DD2F2F2F2 | E6z4
F2 | F3FF2F4F2 | G2G4z4
G2 | E3EE2G4G2 | F6z4
F2 | D4F2d4c2 | c2B4z4
B2 | B4B2A4B2 | c6z4
B2 | A4G2F4E2 | A2A4z4
G2 | F4G2E4F2 | D6z4

